assets/img/membership.svg

<svg xmlns="http://www.w3.org/2000/svg" width="540" height="273" viewBox="0 0 540 273">
  <g fill="none" fill-rule="evenodd">
    <g transform="translate(0 135)">
      <polygon fill="#9CF3C5" points="175.61 137.337 364.171 137.337 364.171 120.859 175.61 120.891"/>
      <polygon fill="#B3F2D1" points="175.63 137.341 0 75.631 0 60.505 175.63 120.914"/>
      <path fill="#616161" d="M188.509338,60.5045567 L364.139155,120.914417 L188.509338,60.5045567 Z"/>
      <polygon fill="#60D3A2" points="364.139 137.341 539.769 75.109 539.769 60.505 364.139 120.914"/>
      <path fill="#D7FBE8" d="M175.637007,0.0971692988 L364.131966,0.0971692988 L539.768973,60.5045567 L364.143604,120.912887 L175.629818,120.921263 L0,60.5045567 L175.629818,0.0946963771 Z"/>
    </g>
    <g opacity=".8" transform="translate(0 90)">
      <polygon fill="#9CF3C5" points="175.61 137.337 364.171 137.337 364.171 120.859 175.61 120.891"/>
      <polygon fill="#B3F2D1" points="175.63 137.341 0 75.631 0 60.505 175.63 120.914"/>
      <path fill="#616161" d="M188.509338,60.5045567 L364.139155,120.914417 L188.509338,60.5045567 Z"/>
      <polygon fill="#60D3A2" points="364.139 137.341 539.769 75.109 539.769 60.505 364.139 120.914"/>
      <path fill="#D7FBE8" d="M175.637007,0.0971692988 L364.131966,0.0971692988 L539.768973,60.5045567 L364.143604,120.912887 L175.629818,120.921263 L0,60.5045567 L175.629818,0.0946963771 Z"/>
    </g>
    <g opacity=".9" transform="translate(0 45)">
      <polygon fill="#9CF3C5" points="175.61 137.337 364.171 137.337 364.171 120.859 175.61 120.891"/>
      <polygon fill="#B3F2D1" points="175.63 137.341 0 75.631 0 60.505 175.63 120.914"/>
      <path fill="#616161" d="M188.509338,60.5045567 L364.139155,120.914417 L188.509338,60.5045567 Z"/>
      <polygon fill="#60D3A2" points="364.139 137.341 539.769 75.109 539.769 60.505 364.139 120.914"/>
      <path fill="#D7FBE8" d="M175.637007,0.0971692988 L364.131966,0.0971692988 L539.768973,60.5045567 L364.143604,120.912887 L175.629818,120.921263 L0,60.5045567 L175.629818,0.0946963771 Z"/>
    </g>
    <g opacity=".7">
      <polygon fill="#9CF3C5" points="175.61 137.337 364.171 137.337 364.171 120.859 175.61 120.891"/>
      <polygon fill="#B3F2D1" points="175.63 137.341 0 75.631 0 60.505 175.63 120.914"/>
      <path fill="#616161" d="M188.509338,60.5045567 L364.139155,120.914417 L188.509338,60.5045567 Z"/>
      <polygon fill="#60D3A2" points="364.139 137.341 539.769 75.109 539.769 60.505 364.139 120.914"/>
      <path fill="#20252E" d="M175.637007,0.0971692988 L364.131966,0.0971692988 L539.768973,60.5045567 L364.143604,120.912887 L175.629818,120.921263 L0,60.5045567 L175.629818,0.0946963771 Z"/>
      <polygon fill="#60D3A2" points="306 33.75 322.313 28.171 322.313 16.921 306 22.5"/>
      <polygon fill="#9CF3C5" points="306 33.75 267.188 20.475 267.188 9.225 306 22.5"/>
      <polygon fill="#20252E" points="283.5 3.646 267.188 9.225 306 22.5 322.313 16.921"/>
      <polygon fill="#60D3A2" points="376.875 76.5 393.188 70.921 393.188 59.671 376.875 65.25"/>
      <polygon fill="#9CF3C5" points="376.875 76.5 254.25 34.56 254.25 23.31 376.875 65.25"/>
      <polygon fill="#20252E" points="270.563 17.731 254.25 23.31 376.875 65.25 393.188 59.671"/>
      <polygon fill="#60D3A2" points="352.125 86.625 368.438 81.046 368.438 69.796 352.125 75.375"/>
      <polygon fill="#9CF3C5" points="352.125 86.625 218.25 40.837 218.25 29.587 352.125 75.375"/>
      <polygon fill="#20252E" points="234.563 24.008 218.25 29.587 352.125 75.375 368.438 69.796"/>
      <polygon fill="#60D3A2" points="340.875 101.25 357.188 95.671 357.188 84.421 340.875 90"/>
      <polygon fill="#9CF3C5" points="340.875 101.25 218.25 59.31 218.25 48.06 340.875 90"/>
      <polygon fill="#20252E" points="234.563 42.481 218.25 48.06 340.875 90 357.188 84.421"/>
      <polygon fill="#60D3A2" points="300.375 105.75 316.688 100.171 316.688 88.921 300.375 94.5"/>
      <polygon fill="#9CF3C5" points="300.375 105.75 147.375 53.421 147.375 42.171 300.375 94.5"/>
      <polygon fill="#20252E" points="163.688 36.592 147.375 42.171 300.375 94.5 316.688 88.921"/>
      <polygon fill="#60D3A2" points="130.5 72 146.813 66.421 146.813 55.171 130.5 60.75"/>
      <polygon fill="#9CF3C5" points="130.5 72 119.25 68.152 119.25 56.902 130.5 60.75"/>
      <polygon fill="#20252E" points="135.563 51.323 119.25 56.902 130.5 60.75 146.813 55.171"/>
    </g>
  </g>
</svg>

<?xml version="1.0" encoding="UTF-8" standalone="no"?>
<svg width="540" xmlns="http://www.w3.org/2000/svg" viewBox="0 0 540 273" height="273">
 <g fill-rule="evenodd" fill="none">
  <g transform="translate(0 135)">
   <polygon points="175.61 137.34 364.17 137.34 364.17 120.86 175.61 120.89" fill="#9CF3C5"/>
   <polygon points="175.63 137.34 0 75.631 0 60.505 175.63 120.91" fill="#B3F2D1"/>
   <path d="m188.51 60.505l175.63 60.405-175.63-60.405z" fill="#616161"/>
   <polygon points="364.14 137.34 539.77 75.109 539.77 60.505 364.14 120.91" fill="#60D3A2"/>
   <path d="m175.64 0.097169h188.49l175.64 60.408-175.63 60.405-188.51 0.01-175.63-60.415 175.63-60.41z" fill="#D7FBE8"/>
  </g>
  <g opacity=".8" transform="translate(0 90)">
   <polygon points="175.61 137.34 364.17 137.34 364.17 120.86 175.61 120.89" fill="#9CF3C5"/>
   <polygon points="175.63 137.34 0 75.631 0 60.505 175.63 120.91" fill="#B3F2D1"/>
   <path d="m188.51 60.505l175.63 60.405-175.63-60.405z" fill="#616161"/>
   <polygon points="364.14 137.34 539.77 75.109 539.77 60.505 364.14 120.91" fill="#60D3A2"/>
   <path d="m175.64 0.097169h188.49l175.64 60.408-175.63 60.405-188.51 0.01-175.63-60.415 175.63-60.41z" fill="#D7FBE8"/>
  </g>
  <g opacity=".9" transform="translate(0 45)">
   <polygon points="175.61 137.34 364.17 137.34 364.17 120.86 175.61 120.89" fill="#9CF3C5"/>
   <polygon points="175.63 137.34 0 75.631 0 60.505 175.63 120.91" fill="#B3F2D1"/>
   <path d="m188.51 60.505l175.63 60.405-175.63-60.405z" fill="#616161"/>
   <polygon points="364.14 137.34 539.77 75.109 539.77 60.505 364.14 120.91" fill="#60D3A2"/>
   <path d="m175.64 0.097169h188.49l175.64 60.408-175.63 60.405-188.51 0.01-175.63-60.415 175.63-60.41z" fill="#D7FBE8"/>
  </g>
  <g opacity=".7">
   <polygon points="175.61 137.34 364.17 137.34 364.17 120.86 175.61 120.89" fill="#9CF3C5"/>
   <polygon points="175.63 137.34 0 75.631 0 60.505 175.63 120.91" fill="#B3F2D1"/>
   <path d="m188.51 60.505l175.63 60.405-175.63-60.405z" fill="#616161"/>
   <polygon points="364.14 137.34 539.77 75.109 539.77 60.505 364.14 120.91" fill="#60D3A2"/>
   <path d="m175.64 0.097169h188.49l175.64 60.408-175.63 60.405-188.51 0.01-175.63-60.415 175.63-60.41z" fill="#20252E"/>
   <polygon points="306 33.75 322.31 28.171 322.31 16.921 306 22.5" fill="#60D3A2"/>
   <polygon points="306 33.75 267.19 20.475 267.19 9.225 306 22.5" fill="#9CF3C5"/>
   <polygon points="283.5 3.646 267.19 9.225 306 22.5 322.31 16.921" fill="#20252E"/>
   <polygon points="376.88 76.5 393.19 70.921 393.19 59.671 376.88 65.25" fill="#60D3A2"/>
   <polygon points="376.88 76.5 254.25 34.56 254.25 23.31 376.88 65.25" fill="#9CF3C5"/>
   <polygon points="270.56 17.731 254.25 23.31 376.88 65.25 393.19 59.671" fill="#20252E"/>
   <polygon points="352.12 86.625 368.44 81.046 368.44 69.796 352.12 75.375" fill="#60D3A2"/>
   <polygon points="352.12 86.625 218.25 40.837 218.25 29.587 352.12 75.375" fill="#9CF3C5"/>
   <polygon points="234.56 24.008 218.25 29.587 352.12 75.375 368.44 69.796" fill="#20252E"/>
   <polygon points="340.88 101.25 357.19 95.671 357.19 84.421 340.88 90" fill="#60D3A2"/>
   <polygon points="340.88 101.25 218.25 59.31 218.25 48.06 340.88 90" fill="#9CF3C5"/>
   <polygon points="234.56 42.481 218.25 48.06 340.88 90 357.19 84.421" fill="#20252E"/>
   <polygon points="300.38 105.75 316.69 100.17 316.69 88.921 300.38 94.5" fill="#60D3A2"/>
   <polygon points="300.38 105.75 147.38 53.421 147.38 42.171 300.38 94.5" fill="#9CF3C5"/>
   <polygon points="163.69 36.592 147.38 42.171 300.38 94.5 316.69 88.921" fill="#20252E"/>
   <polygon points="130.5 72 146.81 66.421 146.81 55.171 130.5 60.75" fill="#60D3A2"/>
   <polygon points="130.5 72 119.25 68.152 119.25 56.902 130.5 60.75" fill="#9CF3C5"/>
   <polygon points="135.56 51.323 119.25 56.902 130.5 60.75 146.81 55.171" fill="#20252E"/>
  </g>
 </g>
</svg>
